X: 16
M: 6/8
L: 1/8
K: Em
|:\
E2F G2A | B2B B2B |\
c3 B2B | e3 ^d3 :|\
|:\
(f2d) g2e | (fd2) B2c |
(dB2) A2B | (BA2) B3 |\
(B2e) ^d2e | (f^d2) e3 :|

